Origami/64x64/apps/xdman.svg

<svg width="64" height="64" version="1" xmlns="http://www.w3.org/2000/svg">
 <rect transform="matrix(0,-1,-1,0,0,0)" x="-60" y="-60" width="56" height="56" rx="2.8" ry="2.8" style="fill:#5c78a8"/>
 <path d="m 4,57.199219 0,1 C 4,59.749197 5.2496034,61 6.8007812,61 L 57.199219,61 C 58.749196,61 60,59.749197 60,58.199219 l 0,-1 C 60,58.749197 58.749196,60 57.199219,60 L 6.8007812,60 C 5.2496034,60 4,58.749197 4,57.199219 Z" style="opacity:.2"/>
 <path d="M 6.8007812 4 C 5.2496034 4 4 5.2498396 4 6.8007812 L 4 7.8007812 C 4 6.2498396 5.2496034 5 6.8007812 5 L 57.199219 5 C 58.749196 5 60 6.2498397 60 7.8007812 L 60 6.8007812 C 60 5.2498397 58.749196 4 57.199219 4 L 6.8007812 4 z" style="fill:#ffffff;opacity:.2"/>
 <path d="m29.144378 12.999512c-0.791429 0-1.144378 0.68675-1.144378 1.539038v24.46125h-6l9.999857 14.0002 9.999857-13.9998h-5.999714v-24.46125c0-0.851188-0.354995-1.537978-1.144984-1.537978z" style="opacity:.2"/>
 <path d="m29.144378 11.999512c-0.791429 0-1.144378 0.68675-1.144378 1.539038v24.46125h-6l9.999857 14.0002 9.999857-13.9998h-5.999714v-24.46125c0-0.851188-0.354995-1.537978-1.144984-1.537978z" style="fill:#ffffff"/>
</svg>

<svg xmlns="http://www.w3.org/2000/svg" width="64" height="64" version="1">
 <rect style="fill:#5c78a8" width="56" height="56" x="-60" y="-60" rx="2.8" ry="2.8" transform="matrix(0,-1,-1,0,0,0)"/>
 <path style="opacity:0.2" d="m 4,57.199219 0,1 C 4,59.749197 5.2496034,61 6.8007812,61 L 57.199219,61 C 58.749196,61 60,59.749197 60,58.199219 l 0,-1 C 60,58.749197 58.749196,60 57.199219,60 L 6.8007812,60 C 5.2496034,60 4,58.749197 4,57.199219 Z"/>
 <path style="opacity:0.2;fill:#ffffff" d="M 6.8007812 4 C 5.2496034 4 4 5.2498396 4 6.8007812 L 4 7.8007812 C 4 6.2498396 5.2496034 5 6.8007812 5 L 57.199219 5 C 58.749196 5 60 6.2498397 60 7.8007812 L 60 6.8007812 C 60 5.2498397 58.749196 4 57.199219 4 L 6.8007812 4 z"/>
 <path style="opacity:0.2" d="M 29.144378,12.999512 C 28.352949,12.999512 28,13.686262 28,14.53855 l 0,24.46125 -6,0 L 31.999857,53 41.999714,39.0002 36,39.0002 36,14.53895 c 0,-0.851188 -0.354995,-1.537978 -1.144984,-1.537978 z"/>
 <path style="fill:#ffffff" d="M 29.144378,11.999512 C 28.352949,11.999512 28,12.686262 28,13.53855 l 0,24.46125 -6,0 L 31.999857,52 41.999714,38.0002 36,38.0002 36,13.53895 c 0,-0.851188 -0.354995,-1.537978 -1.144984,-1.537978 z"/>
</svg>
